X: 19
T: DA DAY DAWN
S: Magnus Robertson, Burravoe
R: slow air
B: Haand me doon da fiddle, 1979
Z: 2012 John Chambers <jc:trillian.mit.edu>
M: C
L: 1/8
K: C
u(AB) |: k(vc<d) ({c}BA) k(c<d) ({c}BA) | {c}B2 (AG) (c<d) ({c}BA) | (c<d) ({c}BA) e2 ","y(AB) |
(vc<d) ({c}BA) (c<d) ({c}BA) | {c}B2 (AG) A2 (GE) | (DE)GA ({c}BA)Bc | (dc)BA ue2 ","yAB |
vA2{g}Ha2","y {f}e2dc | {c}B2AG A2{g}Ha2","y | {f}e2dc e2AB |  A2 {g}Ha2","y {f}e2dc |
(u{c}BA)BG A2","yu(GE) | (vDE)GA ({c}BA)Bc |1 (vdc)BA ue2vAuB :|["last" (dc)BA e2HA2 |]
%%begintext align
I first heard aboot dis t\"un whin I wis aboot 14 an wis telt dat
a Northmavin fiddler \"osed ta walk to Busta Hoose in Deltng an
play him ta da Laird on Yule moarin.  Some years later, whin I
wis spaekin wi Peter Fraser, he played him ower ta me an said he
wis a very auld t\"un.  I fan oot later on at dere wis a version
printed in Hibbert's an anidder een ida Midbrake Papers (in the
Museum of Antiquities, Edinburgh).  Whin I visited da late John
Irvine o' Saltness, Whalsey (Auld Glybie), he played a version
an caaed him "Da Day o' Dawye."  He telt me dat ida aulden days
da fiddler \"osed ta geng aroond da hooses playin him first think
Yule moarin.  In papa Stour, he wis \"owed ta lead da sword
dancers onto da floor fir da "Papa Stour Sword Dance".  Da
version here is da wye I play him.  It is my opinion dat it is
da auldest fiddle t\"un we hae, an dat he is of Norse extraction.
%%endtext

%%sep 2 1 500
%%sep 1 1 500

